packages/icons/src/__generated__/ui/svg/ui-newsletter-16.svg

<svg xmlns="http://www.w3.org/2000/svg" fill="#1652F0" viewBox="0 0 16 16"><path fill-rule="evenodd" d="M12 9.355V0H0v14.007C0 15.11.9 16 2 16h11.373a1.994 1.994 0 0 0 1.96-1.993V9.355H12Zm1.667 4.652a.33.33 0 0 1-.334.332H12v-3.322h1.667v2.99Zm-11-11.243h5.98v1.661h-5.98v-1.66Zm0 3.987h3.98v1.661h-3.98V6.751Zm0 5.648v-1.661h5.98v1.66h-5.98Z" clip-rule="evenodd"/></svg>

<svg xmlns="http://www.w3.org/2000/svg" fill="#1652F0" viewBox="0 0 16 16"><path fill-rule="evenodd" d="M12 9.36V0H0v14a2 2 0 0 0 2 2h11.37a2 2 0 0 0 1.96-2V9.37H12ZM13.67 14c0 .18-.15.33-.34.33H12v-3.32h1.67V14Zm-11-11.25h5.98v1.67H2.67V2.76Zm0 4h3.98V8.4H2.67V6.75Zm0 5.64v-1.66h5.98v1.66H2.67Z" clip-rule="evenodd"/></svg>
